file.svg

<svg xmlns="http://www.w3.org/2000/svg" x="0px" y="0px"
width="8" height="8"
viewBox="0,0,256,256"
style="fill:#000000;">
<g fill="#fafafa" fill-rule="nonzero" stroke="none" stroke-width="1" stroke-linecap="butt" stroke-linejoin="miter" stroke-miterlimit="10" stroke-dasharray="" stroke-dashoffset="0" font-family="none" font-weight="none" font-size="none" text-anchor="none" style="mix-blend-mode: normal"><g transform="scale(10.66667,10.66667)"><path d="M3,0v24h18v-17l-7,-7zM5,2h8v6h6v14h-14z"></path></g></g>
</svg>

<svg xmlns="http://www.w3.org/2000/svg" x="0px" y="0px"
width="8" height="8"
viewBox="0 0 24 24"
style="fill:#FFFFFF;">
<path d="M 3 0 L 3 24 L 21 24 L 21 7 L 14 0 Z M 5 2 L 13 2 L 13 8 L 19 8 L 19 22 L 5 22 Z"></path>
</svg>
